X: 39100
T: Sweeny's Planxty
R: jig
M: 6/8
K: Gmajor
|:EDE G2D|EDE G2B|dcB AGA|BAA ABG|
EDE G2D|EDE G2B|dcB AGA|BGG G3:|
|:GAB c2c|Bdc BAG|ABA ABc|dcB A2G|
EDE G2D|EDE Gge|dcB AGA|BGG G3:|

